src/public/img/icon_tab_group.svg

<?xml version="1.0" encoding="UTF-8"?>
<svg width="525px" height="557px" viewBox="0 0 525 557" version="1.1" xmlns="http://www.w3.org/2000/svg" xmlns:xlink="http://www.w3.org/1999/xlink">
    <!-- Generator: Sketch 52.1 (67048) - http://www.bohemiancoding.com/sketch -->
    <title>Groups</title>
    <desc>Created with Sketch.</desc>
    <g id="Groups" stroke="none" stroke-width="1" fill="none" fill-rule="evenodd">
        <path d="M9,442 L39.9394904,442 L39.9394904,356.627215 C39.9394904,354.108119 40.4911603,351.619584 41.5557325,349.336486 L41.6470659,349.140611 C42.6594298,346.969481 43.9480363,344.938232 45.4808917,343.097297 L46.4115648,341.979574 C47.3302877,340.876202 48.272667,339.792745 49.2380474,338.729955 L52.4076433,335.240541 L55.9642619,331.954815 C57.5927763,330.450339 59.3372597,329.076467 61.1815287,327.845946 L63.3579072,326.393837 C63.7541169,326.129481 64.1484328,325.862297 64.5408247,325.592306 L78.7292994,315.82973 L87.0414013,310.745946 L93.6010763,307.932351 C95.6923185,307.035369 97.8135676,306.210028 99.9611188,305.457769 L101.356688,304.968919 C104.433273,303.891231 107.562429,302.969941 110.732148,302.208585 L111.746815,301.964865 C115.581615,301.043758 119.51171,300.578378 123.455581,300.578378 L134.605096,300.578378 L173.856688,300.578378 L182.630573,300.578378 L183.812271,300.578378 C187.009443,300.578378 190.189464,301.045473 193.251592,301.964865 L195.702217,302.700655 C197.146839,303.134397 198.581462,303.600768 200.004986,304.09941 L204.607477,305.711603 C206.272265,306.294757 207.952191,306.833759 209.645492,307.328043 L213.127866,308.344569 C216.491072,309.326308 219.736438,310.674017 222.805732,312.363514 L226.070934,314.160847 C226.972635,314.65719 227.86662,315.167424 228.752569,315.691369 L237.582803,320.913514 L243.077185,325.56642 C243.416383,325.853668 243.757492,326.138652 244.100489,326.421352 L247.511146,329.232432 C250.121821,331.384163 252.518652,333.782923 254.668282,336.395328 L257.716595,340.099888 C257.839714,340.249512 257.963268,340.398778 258.087254,340.547683 L262.380817,345.704185 C264.005482,347.655382 265.371269,349.808291 266.444268,352.109459 L266.444268,352.109459 C267.50884,354.392557 268.06051,356.881092 268.06051,359.400188 L268.06051,442 L299,442 L299,350.847347 C299,347.559458 298.373095,344.301722 297.152866,341.248649 L297.152866,341.248649 C295.926349,338.179842 294.317355,335.278135 292.364039,332.612338 L290.226115,329.694595 L288.252233,327.111248 C285.568982,323.599504 282.655879,320.269502 279.532086,317.143147 L278.219745,315.82973 L275.203203,312.559129 C273.520547,310.734756 271.770556,308.973658 269.956867,307.279493 L269.214968,306.586486 C266.909105,304.432582 264.449628,302.449252 261.856003,300.652193 L259.748408,299.191892 L256.45904,296.605269 C254.344061,294.942137 252.126703,293.413497 249.820064,292.028378 L249.820064,292.028378 C247.514057,290.64364 245.112628,289.424404 242.633895,288.379871 L238.878578,286.797389 C238.014771,286.433382 237.156124,286.057247 236.302892,285.669097 L235.042994,285.095946 C233.350268,284.325894 231.683955,283.499055 230.046888,282.616835 L229.501592,282.322973 C227.504248,281.246598 225.41784,280.34439 223.265536,279.626367 L221.98504,279.199184 C220.377439,278.662878 218.756464,278.167524 217.123687,277.713603 L215.417197,277.239189 C212.648189,276.469389 209.842825,275.836917 207.011374,275.344087 L201.882713,274.451414 C201.054356,274.307234 200.227849,274.152612 199.403392,273.987585 L193.406286,272.78718 C192.071874,272.520079 190.732147,272.280245 189.387945,272.067828 L187.017516,271.693243 C184.097382,271.231791 181.145563,271 178.189194,271 L154,271 L117.288217,271 C114.374603,271 111.472004,271.357611 108.64552,272.064811 L104.548082,273.090011 C103.959776,273.237208 103.370144,273.37905 102.779258,273.51552 L94.170584,275.503767 C92.4966297,275.890381 90.8329166,276.320069 89.1811014,276.792403 L83.287634,278.477632 C80.25045,279.34611 77.2561234,280.358014 74.3147274,281.509939 L69.5946335,283.358447 C68.6037944,283.746485 67.6192123,284.150313 66.6412631,284.569778 L63.2595541,286.02027 C60.0294987,287.405715 56.8778229,288.967192 53.8187129,290.697672 L47.7898089,294.108108 L44.1592675,296.459209 C41.3478581,298.279848 38.6296957,300.240587 36.0150593,302.334012 L33.166798,304.614489 C31.5252222,305.928827 29.925514,307.294619 28.3700598,308.709828 L24.7707968,311.984569 C21.9556187,314.545921 19.2889643,317.265903 16.7838497,320.131239 L14.0796178,323.224324 L14.0796178,323.224324 C10.7472158,329.288206 9,336.095391 9,343.014608 L9,442 Z" id="Path-5" stroke="#000000" stroke-width="8" fill="#000000"></path>
        <circle id="Oval" stroke="#000000" stroke-width="38" cx="154" cy="161" r="61"></circle>
        <circle id="Oval" stroke="#000000" stroke-width="38" cx="356" cy="161" r="61"></circle>
        <path d="M255.5,291 L263.446918,285.980894 C264.482219,285.32702 265.505422,284.654185 266.51601,283.96273 L269.75,281.75 C272.901288,279.593855 276.337705,277.887432 279.960082,276.679973 L282.097024,275.967659 C285.030762,274.989746 287.91756,273.876274 290.748109,272.630832 L294.751891,270.869168 C297.58244,269.623726 300.469238,268.510254 303.402976,267.532341 L306.570729,266.476424 C310.49789,265.16737 314.610409,264.5 318.75,264.5 L341.5,264.5 L358,264.5 L380,264.5 L381.019245,264.5 C389.632643,264.5 398.205607,265.67757 406.5,268 L421.5,274.5 L431.350095,278.78265 C432.449943,279.260845 433.541099,279.758786 434.623034,280.276234 L444.5,285 L452.371366,289.971389 C453.457021,290.657066 454.555783,291.321769 455.667038,291.965127 L463.5,296.5 L466.029075,298.125834 C469.005635,300.039337 471.836962,302.169842 474.5,304.5 L474.621308,304.606145 C477.202446,306.86464 479.587235,309.338136 481.75,312 L484.371266,315.226174 C484.790412,315.742045 485.21469,316.253725 485.644038,316.761136 L488.254185,319.845855 C489.750943,321.614751 491.185766,323.435135 492.556056,325.303713 L496,330 L496,330 C498.944567,334.907611 500.5,340.523219 500.5,346.246428 L500.5,346.5 L500.5,443 L467,443 L467,353.662278 C467,351.567792 466.662335,349.487004 466,347.5 L466,347.5 C465.33496,345.504879 464.474472,343.580326 463.431071,341.754374 L461,337.5 L457.906676,333.281831 C456.303422,331.095575 454.581966,328.998509 452.75,327 L452.400963,326.619232 C450.802372,324.875315 449.080984,323.248078 447.25,321.75 L447.25,321.75 C445.420114,320.25282 443.463833,318.917156 441.403146,317.75802 L439.662892,316.779126 C437.554991,315.593432 435.40477,314.484598 433.216471,313.45481 L428,311 L421.023676,307.124264 C419.902331,306.501295 418.769102,305.899959 417.62462,305.320592 C415.203735,304.095075 412.662195,302.654878 410,301 C406.828796,299.028711 403.66213,297.528711 400.5,296.5 L396,295 C393.019495,294.006498 389.898312,293.5 386.756584,293.5 L380,293.5 L343.5,293.5 L328.824265,293.5 C326.280974,293.5 323.743902,293.75122 321.25,294.25 L321.25,294.25 C318.753149,294.74937 316.29489,295.425333 313.893755,296.272792 L313.25,296.5 C310.418458,297.499368 307.63896,298.640489 304.922037,299.919041 L300.5,302 L295.99285,304.253575 C293.672073,305.413964 291.49331,306.838909 289.5,308.5 L289.5,308.5 C287.505075,310.162438 285.682703,312.021622 284.060488,314.04939 L282.5,316 L276.5,308 L270,302 L262.5,296.5 L255.5,291 Z" id="Path-6" stroke="#000000" stroke-width="2" fill="#000000"></path>
    </g>
</svg>

<svg
   xmlns:svg="http://www.w3.org/2000/svg"
   xmlns="http://www.w3.org/2000/svg"
   width="20"
   height="20"
   viewBox="0 0 20 20">
  <g
     id="Groups"
     style="fill:none;fill-rule:evenodd;stroke:none;stroke-width:1"
     transform="matrix(0.03703324,0,0,0.03703324,0.62085298,0.66243368)">
    <path
       id="Path-5"
       d="m 9,442 h 30.93949 v -85.37279 c 0,-2.51909 0.55167,-5.00763 1.616242,-7.29072 l 0.09133,-0.19588 c 1.012364,-2.17113 2.30097,-4.20238 3.833826,-6.04331 l 0.930673,-1.11773 c 0.918723,-1.10337 1.861102,-2.18682 2.826482,-3.24961 l 3.169596,-3.48942 3.556619,-3.28573 c 1.628514,-1.50447 3.372998,-2.87834 5.217267,-4.10886 l 2.176378,-1.45211 c 0.39621,-0.26436 0.790526,-0.53154 1.182918,-0.80153 l 14.188474,-9.76258 8.312102,-5.08378 6.559675,-2.8136 c 2.091242,-0.89698 4.212492,-1.72232 6.360043,-2.47458 l 1.395575,-0.48885 c 3.07658,-1.07769 6.20574,-1.99898 9.37546,-2.76033 l 1.01466,-0.24373 c 3.83481,-0.9211 7.7649,-1.38648 11.70877,-1.38648 h 11.14952 39.25159 8.77388 1.1817 c 3.19717,0 6.37719,0.46709 9.43932,1.38648 l 2.45063,0.73579 c 1.44462,0.43375 2.87924,0.90012 4.30277,1.39876 l 4.60249,1.61219 c 1.66478,0.58316 3.34471,1.12216 5.03801,1.61644 l 3.48238,1.01653 c 3.3632,0.98174 6.60857,2.32945 9.67786,4.01894 l 3.2652,1.79734 c 0.9017,0.49634 1.79569,1.00657 2.68164,1.53052 l 8.83023,5.22214 5.49438,4.65291 c 0.3392,0.28725 0.68031,0.57223 1.02331,0.85493 l 3.41066,2.81108 c 2.61067,2.15173 5.0075,4.55049 7.15713,7.1629 l 3.04831,3.70456 c 0.12312,0.14962 0.24668,0.29889 0.37066,0.44779 l 4.29357,5.1565 c 1.62466,1.9512 2.99045,4.10411 4.06345,6.40528 v 0 c 1.06457,2.2831 1.61624,4.77163 1.61624,7.29073 V 442 H 299 v -91.15265 c 0,-3.28789 -0.62691,-6.54563 -1.84713,-9.5987 v 0 c -1.22652,-3.06881 -2.83551,-5.97051 -4.78883,-8.63631 l -2.13793,-2.91775 -1.97388,-2.58334 c -2.68325,-3.51175 -5.59635,-6.84175 -8.72014,-9.9681 l -1.31235,-1.31342 -3.01654,-3.2706 c -1.68265,-1.82437 -3.43264,-3.58547 -5.24633,-5.27964 l -0.7419,-0.693 c -2.30587,-2.15391 -4.76534,-4.13724 -7.35897,-5.9343 l -2.10759,-1.4603 -3.28937,-2.58662 c -2.11498,-1.66313 -4.33234,-3.19177 -6.63898,-4.57689 v 0 c -2.306,-1.38474 -4.70743,-2.60398 -7.18617,-3.64851 l -3.75531,-1.58248 c -0.86381,-0.36401 -1.72246,-0.74014 -2.57569,-1.12829 l -1.2599,-0.57315 c -1.69272,-0.77006 -3.35904,-1.5969 -4.9961,-2.47912 l -0.5453,-0.29386 c -1.99734,-1.07637 -4.08375,-1.97858 -6.23605,-2.6966 l -1.2805,-0.42719 c -1.6076,-0.5363 -3.22858,-1.03166 -4.86135,-1.48558 l -1.70649,-0.47441 c -2.76901,-0.7698 -5.57438,-1.40227 -8.40583,-1.8951 l -5.12866,-0.89268 c -0.82835,-0.14418 -1.65486,-0.2988 -2.47932,-0.46382 l -5.9971,-1.20041 c -1.33442,-0.2671 -2.67414,-0.50694 -4.01835,-0.71935 l -2.37042,-0.37459 C 184.09738,271.23179 181.14556,271 178.18919,271 H 154 117.28822 c -2.91362,0 -5.81622,0.35761 -8.6427,1.06481 l -4.09744,1.0252 c -0.5883,0.1472 -1.17794,0.28904 -1.76882,0.42551 l -8.608676,1.98825 c -1.673954,0.38661 -3.337667,0.8163 -4.989483,1.28863 l -5.893467,1.68523 c -3.037184,0.86848 -6.031511,1.88038 -8.972907,3.03231 l -4.720094,1.84851 c -0.990839,0.38803 -1.975421,0.79186 -2.95337,1.21133 l -3.381709,1.45049 c -3.230055,1.38544 -6.381731,2.94692 -9.440841,4.6774 l -6.028904,3.41044 -3.630542,2.3511 c -2.811409,1.82064 -5.529571,3.78138 -8.144208,5.8748 l -2.848261,2.28048 c -1.641576,1.31434 -3.241284,2.68013 -4.796738,4.09534 l -3.599263,3.27474 c -2.815178,2.56135 -5.481833,5.28133 -7.986947,8.14667 l -2.704232,3.09308 v 0 C 10.747216,329.28821 9,336.09539 9,343.01461 Z"
       inkscape:connector-curvature="0"
       style="fill:currentcolor;stroke:currentcolor;stroke-width:8" />
    <circle
       r="61"
       cy="161"
       cx="154"
       id="Oval"
       style="stroke:currentcolor;stroke-width:38" />
    <circle
       r="61"
       cy="161"
       cx="356"
       id="circle4472"
       style="stroke:currentcolor;stroke-width:38" />
    <path
       id="Path-6"
       d="m 255.5,291 7.94692,-5.01911 c 1.0353,-0.65387 2.0585,-1.32671 3.06909,-2.01816 L 269.75,281.75 c 3.15129,-2.15614 6.58771,-3.86257 10.21008,-5.07003 l 2.13694,-0.71231 c 2.93374,-0.97791 5.82054,-2.09139 8.65109,-3.33683 l 4.00378,-1.76166 c 2.83055,-1.24544 5.71735,-2.35892 8.65109,-3.33683 l 3.16775,-1.05592 C 310.49789,265.16737 314.61041,264.5 318.75,264.5 h 22.75 16.5 22 1.01924 c 8.6134,0 17.18637,1.17757 25.48076,3.5 l 15,6.5 9.85009,4.28265 c 1.09985,0.4782 2.19101,0.97614 3.27294,1.49358 L 444.5,285 l 7.87137,4.97139 c 1.08565,0.68568 2.18441,1.35038 3.29567,1.99374 L 463.5,296.5 l 2.52907,1.62583 c 2.97656,1.91351 5.80789,4.04401 8.47093,6.37417 l 0.12131,0.10615 c 2.58114,2.25849 4.96593,4.73199 7.12869,7.39385 l 2.62127,3.22617 c 0.41914,0.51588 0.84342,1.02755 1.27277,1.53497 l 2.61014,3.08471 c 1.49676,1.7689 2.93159,3.58928 4.30188,5.45786 L 496,330 v 0 c 2.94457,4.90761 4.5,10.52322 4.5,16.24643 V 346.5 443 H 467 v -89.33772 c 0,-2.09449 -0.33767,-4.17528 -1,-6.16228 v 0 c -0.66504,-1.99512 -1.52553,-3.91967 -2.56893,-5.74563 L 461,337.5 457.90668,333.28183 C 456.30342,331.09557 454.58197,328.99851 452.75,327 l -0.34904,-0.38077 c -1.59859,-1.74392 -3.31998,-3.37115 -5.15096,-4.86923 v 0 c -1.82989,-1.49718 -3.78617,-2.83284 -5.84685,-3.99198 l -1.74026,-0.97889 c -2.1079,-1.1857 -4.25812,-2.29453 -6.44642,-3.32432 L 428,311 l -6.97632,-3.87574 c -1.12135,-0.62296 -2.25458,-1.2243 -3.39906,-1.80367 C 415.20373,304.09507 412.66219,302.65488 410,301 c -3.1712,-1.97129 -6.33787,-3.47129 -9.5,-4.5 L 396,295 c -2.98051,-0.9935 -6.10169,-1.5 -9.24342,-1.5 H 380 343.5 328.82427 c -2.5433,0 -5.08037,0.25122 -7.57427,0.75 v 0 c -2.49685,0.49937 -4.95511,1.17533 -7.35625,2.02279 L 313.25,296.5 c -2.83154,0.99937 -5.61104,2.14049 -8.32796,3.41904 L 300.5,302 l -4.50715,2.25357 c -2.32078,1.16039 -4.49954,2.58534 -6.49285,4.24643 v 0 c -1.99493,1.66244 -3.8173,3.52162 -5.43951,5.54939 L 282.5,316 l -6,-8 -6.5,-6 -7.5,-5.5 z"
       inkscape:connector-curvature="0"
       style="fill:currentcolor;stroke:currentcolor;stroke-width:2" />
  </g>
</svg>
